X: 101
T: Kazazok
T: Kazat\vsok
O: Finland, Russia
K:
P: Kazazok (Kazat\vsok)  [D,A]
O: Finland, Russia
M: 2/4
L: 1/8
K: D
|: "D"DF FF | "A7"EG "D"F2 :|\
|: "A"A2 E2 | CB, CA, | A,B, CE | "E7"DB, "A"A,2 :|
P: Kazazok (Kazat\vsok)  [G,D]
O: Finland, Russia
M: 2/4
L: 1/8
K: G
|: "G"GB BB | "D7"Ac "G"B2 :|\
|: "D"d2 A2 | FE FD | DE FA | "A7"GE "D"D2 :|

%%sep 2 1 500
%%sep 1 1 500

%%sep 1 1 500
%%sep 1 1 500

